X:1
T:Title
%%score { 1 | 2 }
L:1/8
Q:1/4=94
M:4/4
K:F
V:1 treble nm="Grand Piano"
V:2 bass 
V:1
 A>A A>A A>A B>A | [DG]2 [B,D]2 [DG]4 | E>E E>D C>C B>B | A6 z2 | A>A A>A A>A B>A | %5
w: D.~O.~Teasley * * * * * * *|||||
 [DG]2 [B,D]2 [DG]4 | E>E E>D C>[EB] [FA]>[EG] | F6 z2 | %8
w: |||
 [Fd]>[Fd] [Fd]>[Fd] [DBf]>[DBf] [DFB]>[Fd] | c6 z2 | d>d d>d f>f e>d | [Ge]6 z2 | %12
w: ||||
 [Af]>[Af] [Af]>[Af] [Af]>[Ac] A>A | B2 c2 d4 | [Ge]>[Ge] [Ge]>[Fd] [Ec]>[Ec] [EB]>[CE] | %15
w: |||
 [CF]6 z2 |] %16
w: |
V:2
 [F,CF]>[F,CF] [F,CF]>[F,CF] [F,CF]>[F,CF] [F,DF]>[F,CF] | [B,,B,]2 [B,,G,]2 [B,,B,]4 | %2
 [C,G,C]>[C,G,C] [C,G,C]>[C,F,C] [C,E,]>[C,E,] [E,G,C]>[E,G,C] | [F,C]6 z2 | %4
 [F,CF]>[F,CF] [F,CF]>[F,CF] [F,CF]>[F,CF] [F,DF]>[F,CF] | [B,,B,]2 [B,,G,]2 [B,,B,]4 | %6
 [C,G,C]>[C,G,C] [C,G,C]>[C,F,C] [C,E,]>[C,G,] [C,C]>[C,B,] | [F,A,]6 z2 | %8
 [B,,B,]>[B,,B,] [B,,B,]>[B,,B,] B,,>B,, B,,>[B,,B,] | [F,A,F]6 z2 | %10
 [B,F]>[B,F] [B,F]>[B,F] [G,DG]>[G,DG] [G,CG]>[G,=B,G] | [C,C]6 z2 | %12
 [F,C]>[F,C] [F,C]>[F,C] [F,C]>[F,C][K:treble] [F,CF]>[F,CF] | [B,DG]2 [A,C^F]2 [G,B,G]4 | %14
 [C,C]>[C,C] [C,C]>[C,C] [C,G,]>[C,G,] [C,G,]>[C,B,] | [F,,F,]6 z2 |] %16

